X:1
T:Star vicino
T:Salvator Rosa (1615 - 1673)
T:Star vicino al bel idol
T:Canzonetta
C:Salvator Rosa
C:(1615 - 1673)
%%score 1 { ( 2 3 ) | 4 }
L:1/8
Q:1/4=76
M:3/4
K:F
V:1 treble-8 nm="Veu"
V:2 treble nm="Piano"
V:3 treble 
V:4 bass 
V:1
"^Andantino espressivo" z6 | z6 | z6 | z6 | z6 | z6 | z6 | z6 | z2!p!"^Dolce legato" A2 B2 | %9
w: ||||||||Star vi-|
 c2 G2 A2 | B2 B3 B | (cB) A2 z2 | z2 F2 G2 | A2 F2 G2 | A2 (BA) (GF) | (F2 E2) z2 | %16
w: ci- no‿al bel|i- dol che|s’a- * ma|È‿il più|va- go di-|let- to _ d’a- *|mor! _|
 z2!pp! (F2 G2 | A2 BA G2 |!<(! A2 BA GB!<)! |!>(! Ac BA TG3/2F/4!>)!G/4 | A2 A2{/c} (BA/B/ | %21
w: È‿il più|va- * * *|||* go di- * *|
 c2 F2)) ((FG | A2 C2){EF} G2 | F2) z2!<(! C2!<)! |!>(! (C6!>)! | C4)!p! (C2 |!<(! c6- | %27
w: let- to di- *|let- to, d’a-|mor più|va-|go di-|let-|
 c3!<)!!>(! d/c/ B/A/ G/F/!>)! | C2[Q:1/4=90]"^a tempo" A3) G | F4 z2 | z6 | z6 | z6 | z6 | %34
w: |* to d’a-|mor.|||||
!p! z2 A2"^legato" B2 | c2 G2 A2 | B2 B3 B | (cB) A2 z2 | z2 F2 G2 | A2 F2 G2 | A2 (BA) (GF) | %41
w: Star lon-|tan da co-|lei che si|bra- * ma|È d’a-|mor il più|me- sto _ do- *|
 (F2 E2) z2 | z2!p! (F2 G2 | A2 BA G2 |!<(! A2 (BA) GB!<)! | A!>(!c BA TG3/2!>)!F/4G/4 | %46
w: lor _|È‿il più|me- * * *|||
 A2 A2){/c} (BA/B/ | c2) F2 (FG) | A2 C2{EF} G2 | F z C2 .C2 | (C6 | C4) (C2 | c6- | %53
w: * sto do- * *|lor, il più _|me- sto do-|lor, il più|me-|sto, più|me-|
!pp! c!fermata!f- f/[Q:1/4=80]"^a tempo"(e/d/c/ B/A/G/F/ | C2) A3) G | F4 z2 |] %56
w: |* sto do-|lor!|
V:2
 z2 (A2 [G-B]2 | [Gc]2) (G2 [FA]2 | B4 B2 | B2 A2) ([EG]2 | F2 [Gc]2 [EB]2 | A2 F2 G2) | %6
 C2 F2 TE3/2D/4E/4 | F2 z2 z2 | z2 [FA]2 [DG-B]2 | [Gc]2 G2 A2 | B4 B2 | B2 A2 G2 | F4 G2 | %13
 A2 F2 G2 | [CFA]2 z2 [DG]2 | [A,F]2 [G,E]2 [B,E]2 | [A,F]4 [CG]2 | [CA]2 z2 [CG]2 | %18
 [CA]2 z2 [CEG]2 | [CFA]2 z2 [CG]2 | [CFA]2 [A,CF]2 [B,CE]2 | z2 [A,F]2 [A,F][DG] | %22
 [CFA]4 [B,CE]2 | [A,CF]2 .C2 .C2 | C6 | C6 | C A B A G B | A2 F2 G2 | [CFA]4 [B,CE]2 | %29
 ([A,CF]4 [EG]2 | A2 c2 B2 | A2 F2 [DG]2) | C2!>(! F2 TE3/2D/4!>)!E/4 | [A,F]2 z2 z2 | %34
 z2 [CFA]2 [DG-B]2 | [Gc]2 G2 A2 | B4 B2 | B2 A2 G2 | F4 G2 | A2 F2 G2 | [FA]2 z2 [DG]2 | F2 E4 | %42
 F4 G2 | [CA]2 z2 [CG]2 | [CA]2 z2 [CEG]2 | [CFA]2 z2 [CG]2 | [CA]2 [A,CF]2 [B,CE]2 | %47
 z2 [A,CF]2 [A,F][DG] | [CFA]4 [B,CE]2 | [A,CF] z!p! C2 C2 | C6 | C6 | C A B A G B | %53
"^col canto" A2 F2 G2 | [CFA]4 [B,CE]2 | [A,CF]4 z2 |] %56
V:3
 x2 [CF]2 D2 | C4 C2 | [DF]2 [CG]2 [CE]2 | [CF]4 B,2 | C4 C2 | [CF]2 C2 [B,D]2 | A,4 B,2 | %7
 A,2 x2 x2 | x6 | C4 [CF]2 | [DF]2 [CG]2 [CE]2 | [CF]4 [B,E]2 | C4 C2 | C4 [CE]2 | x6 | x6 | x6 | %17
 x6 | x6 | x6 | x6 | x6 | x6 | x6 | A,2 B,A, G,2 | A,2 B,A,G,B, | A, z C4- | C2 C2 D2 | x6 | x6 | %30
 F2 C4- | C2 C2 B,2 | A,4 B,2 | x6 | x6 | C4 [CF]2 | [DF]2 [CG]2 [C=E]2 | [CF]4 [B,E]2 | C4 C2 | %39
 C4 [CE]2 | C2 x2 B,2 | [_A,D]2 G,2 _B,2 | A,2 D2 C2 | x6 | x6 | x6 | x6 | x6 | x6 | x6 | %50
 A,2 B,A, G,2 | A,2 B,A,G,B, | A, z C4- | C2 C2 D2 | x6 | x6 |] %56
V:4
!p! F,4 F,2 | E,4 _E,2 | D,2 =E,2 C,2 | F,4 G,2 | A,2 E,2 G,2 | F,2 A,,2 B,,2 | C,4 [C,G,]2 | %7
 [F,,F,]2 A,,2 C,2 | F,4 F,2 | E,4 _E,2 | D,2 =E,2 C,2 | F,4 G,2 | A,4 E,2 | F,2 A,,2 C,2 | %14
 F,2 D,2 B,,2 | C,4 C,2 | D,4 E,2 | F,2 z2 E,2 | F,2 z2 C,2 | F,2 z2 E,2 | F,2 F,,2 G,,2 | %21
 A,,2 z2 D,B,, | C,4 C,,2 |!p! F,,2 z2 z2 | F,,F,G,F, E,2 | F,,F,G,F, E,2 | F,,F,G,F,E,G, | %27
 F,2 A,,2 B,,2 | C,4 C,,2 | F,,2 A,,2 C,2 | F,2 A,2 G,2 | F,2 A,,2 B,,2 | C,4 [C,G,]2 | %33
 [F,,F,]2 A,,2 C,2 | F,4 F,2 | E,4 _E,2 | D,2 =E,2 C,2 | F,,2 F,2 G,2 | A,4 E,2 | F,2 A,,2 C,2 | %40
 F,2 D,2 B,,2 | =B,,2 C,2 ^C,2 | D,4 E,2 | F,2 z2 E,2 | F,2 z2 C,2 | F,2 z2 E,2 | F,2 F,,2 G,,2 | %47
 A,,2 z2 D,B,, | C,4 C,,2 | F,,2 z2 z2 | F,,F,G,F, E,2 | F,,F,G,F,!<(! E,2 | F,,F,!<)!G,F,E,G, | %53
 F,2!pp! A,,2 B,,2 | C,4 C,,2 | F,,2 F,,,2 z2 |] %56

